X:1
T:Marche : A
E:12
Z:Roger Ngaret (94-95)
R:marche
C:Trad.
S:
A:Bretagne
M:2/4
L:1/16
K:G
Q:1/4=110
B2 | "Am"c3B A2B2 | c6e2 | e2d2 "G"B2d2 | \
"F"c2B2 "Am"A2B2 | c3B A2B2 | c6e2 | e2d2 "G"B2d2 |1 \
"F"c2B2 "Am"A2 :|2 "F"c2B2 "Am"(A4 | A2) |: \
e2 | e2d2 c2A2 | "G"G2G2 "D"A2B2 | "Am"c4 e3d | \
"G"B6e2 | "Am"e2d2 c2A2 | "G"G2G2 "D"A2B2 | "F"c4 "G"B4 | "Am"A6 :|
